X:1
T:Goldberg Variations: Variation XXVI
T:BWV 988
T:J. S. Bach
%%score { ( 1 2 ) | ( 3 4 ) }
L:1/8
M:3/4
K:G
V:1 bass nm="Harp"
V:2 bass 
V:3 treble 
V:4 treble 
V:1
 (6:4:6G,/A,/G,/D,/E,/F,/ (6:4:6G,/F,/G,/A,/G,/A,/ (6:4:6B,/A,/B,/C/B,/^C/ | %1
[K:treble] (6:4:6D/E/D/A,/B,/^C/ (6:4:6D/C/D/E/D/E/ (6:4:6F/E/F/G/E/F/ | %2
 (6:4:6G/A/G/B,/E/F/ (6:4:6G/F/G/A/G/A/ (6:4:6B/A/B/^c/B/c/ | %3
 (6:4:6d/e/d/A/B/^c/ (6:4:6d/_d/=d/e/d/e/ (6:4:6f/e/f/g/e/f/ | %4
 (6:4:6g/f/g/d/c/d/ (6:4:6B/G/^F/G/B/d/ (6:4:6=f/e/f/d/B/d/ | %5
 (6:4:6e/d/e/c/B/c/ (6:4:6G/E/D/E/G/c/ (6:4:6e/d/e/c/A/c/ | %6
 (6:4:6d/c/d/A/G/A/ (6:4:6F/D/^C/D/F/A/ (6:4:6c/B/c/A/F/A/ | %7
 (6:4:6B/A/B/G/F/G/ (6:4:6D/B,/A,/B,/D/G/ (6:4:6B/G/F/G/B/d/ | g3/2f/4e/4 d2 z b | a2 a2 z a | %10
 a2 g2 z g | g>e{B} A2 z g | g>e{e} f2 z a | g>e{f} g2 z g | g2 ^c2 z A | A>E{E} F2 z2 | %16
[K:bass] (6:4:6G,/A,/G,/D,/E,/F,/ (6:4:6G,/F,/G,/A,/G,/A,/ (6:4:6B,/A,/B,/C/B,/^C/ | %17
[K:treble] (6:4:6D/E/D/A,/B,/^C/ (6:4:6D/C/D/E/D/E/ (6:4:6F/E/F/G/E/F/ | %18
 (6:4:6G/A/G/B,/E/F/ (6:4:6G/F/G/A/G/A/ (6:4:6B/A/B/^c/B/c/ | %19
 (6:4:6d/e/d/A/B/^c/ (6:4:6d/_d/=d/e/d/e/ (6:4:6f/e/f/g/e/f/ | %20
 (6:4:6g/f/g/d/c/d/ (6:4:6B/G/^F/G/B/d/ (6:4:6=f/e/f/d/B/d/ | %21
 (6:4:6e/d/e/c/B/c/ (6:4:6G/E/D/E/G/c/ (6:4:6e/d/e/c/A/c/ | %22
 (6:4:6d/c/d/A/G/A/ (6:4:6F/D/^C/D/F/A/ (6:4:6c/B/c/A/F/A/ | %23
 (6:4:6B/A/B/G/F/G/ (6:4:6D/B,/A,/B,/D/G/ (6:4:6B/G/F/G/B/d/ | g3/2f/4e/4 d2 z b | a2 a2 z a | %26
 a2 g2 z g | g>e{B} A2 z g | g>e{e} f2 z a | g>e{f} g2 z g | g2 ^c2 z A | A>E{E} F2 z2 | %32
 (6:4:6a/g/a/d'/c'/b/ (6:4:6a/b/a/g/a/g/ (6:4:6f/g/f/e/f/e/ | %33
 (6:4:6d/c/d/g/f/e/ (6:4:6d/e/d/c/d/c/ (6:4:6B/c/B/A/B/A/ | %34
 (6:4:6G/F/G/B/A/G/ (6:4:6F/G/F/E/F/E/ (6:4:6^D/E/D/^C/D/C/ | %35
[K:bass] (6:4:6B,/^A,/B,/E/^D/^C/ (6:4:6B,/=C/B,/=A,/B,/A,/ (6:4:6G,/A,/G,/F,/G,/F,/ | %36
 (6:4:6E,/^D,/E,/A,/G,/A,/ (6:4:6G,/F,/G,/[K:treble]B,/E/F/ (6:4:6G/F/G/E/^D/E/ | %37
 (6:4:6C/B,/C/E/D/E/ (6:4:6A,/^G,/A,/C/=F/A/ (6:4:6c/B/c/A/F/A/ | %38
 (6:4:6^D/^C/D/F/E/F/ (6:4:6B,/^A,/B,/D/G/A/ (6:4:6A/G/A/F/_E/F/ | %39
 (6:4:6G/F/G/B/A/B/ (6:4:6E/^D/E/G/B/^c/ (6:4:6e/c/B/A/G/F/ | E z z z/ g/{g} f>e | %41
{e} d2- d>=f{f} e>d |{d} c4- c>c | (6:4:6F/G/F/^C/D/E/ (6:4:6F/E/F/G/F/G/ (6:4:6A/G/A/B/G/A/ | %44
 (6:4:6B/c/B/F/G/A/ (6:4:6B/A/B/c/B/c/ (6:4:6d/c/d/e/c/d/ | %45
 (6:4:6e/=f/e/B/c/d/ (6:4:6e/d/e/^f/e/f/ (6:4:6g/f/g/a/f/g/ | %46
 (6:4:6a/b/a/f/g/a/ (6:4:6b/a/b/d'/c'/b/ (6:4:6a/g/f/e/d/c/ | (6:4:6B/A/G/F/G/D/ (3B, z z z2 | %48
 (6:4:6a/g/a/d'/c'/b/ (6:4:6a/b/a/g/a/g/ (6:4:6f/g/f/e/f/e/ | %49
 (6:4:6d/c/d/g/f/e/ (6:4:6d/e/d/c/d/c/ (6:4:6B/c/B/A/B/A/ | %50
 (6:4:6G/F/G/B/A/G/ (6:4:6F/G/F/E/F/E/ (6:4:6^D/E/D/^C/D/C/ | %51
 (6:4:6B,/^A,/B,/E/^D/^C/ (6:4:6B,/=C/B,/=A,/B,/A,/ (6:4:6G,/A,/G,/F,/G,/F,/ | %52
 (6:4:6E,/^D,/E,/A,/G,/A,/ (6:4:6G,/F,/G,/B,/E/F/ (6:4:6G/F/G/E/^D/E/ | %53
 (6:4:6C/B,/C/E/D/E/ (6:4:6A,/^G,/A,/C/=F/A/ (6:4:6c/B/c/A/F/A/ | %54
 (6:4:6^D/^C/D/F/E/F/ (6:4:6B,/^A,/B,/D/G/A/ (6:4:6A/G/A/F/_E/F/ | %55
 (6:4:6G/F/G/B/A/B/ (6:4:6E/^D/E/G/B/^c/ (6:4:6e/c/B/A/G/F/ | E z z z/ g/{g} f>e | %57
{e} d2- d>=f{f} e>d |{d} c4- c>c | (6:4:6F/G/F/^C/D/E/ (6:4:6F/E/F/G/F/G/ (6:4:6A/G/A/B/G/A/ | %60
 (6:4:6B/c/B/F/G/A/ (6:4:6B/A/B/c/B/c/ (6:4:6d/c/d/e/c/d/ | %61
 (6:4:6e/=f/e/B/c/d/ (6:4:6e/d/e/^f/e/f/ (6:4:6g/f/g/a/f/g/ | %62
 (6:4:6a/b/a/f/g/a/ (6:4:6b/a/b/d'/c'/b/ (6:4:6a/g/f/e/d/c/ | %63
 (6:4:6B/A/G/F/G/D/ (3!fermata!B, z z z2 |] %64
V:2
[I:staff +1] B2 B2[I:staff -1] z[I:staff +1] B | %1
[I:staff -1][K:treble][I:staff +1] A2 A2[I:staff -1] z[I:staff +1] d | %2
 d2 d/4^c/4d/4c/4d/4c/4d/4c/4[I:staff -1] z[I:staff +1] G | G>E{E} F2[I:staff -1] z[I:staff +1] A | %4
 D>E =F2[I:staff -1] z[I:staff +1] G | G>E{D} C2[I:staff -1] z[I:staff +1] E | %6
 A,>B, C2[I:staff -1] z[I:staff +1] D | D>B, G,2[I:staff -1] z2 | B2 B2 z g | g>e f/4e/4f3/2 z c | %10
 B>^d e/4d/4e3/2 z e | A>^c E2 z _d | ^c2 d2 z d | d2 d2 z e | A3/2G/4F/4{F} E2 z A, | D2 D2 z2 | %16
[K:bass][I:staff +1] B2 B2[I:staff -1] z[I:staff +1] B | %17
[I:staff -1][K:treble][I:staff +1] A2 A2[I:staff -1] z[I:staff +1] d | %18
 d2 d/4^c/4d/4c/4d/4c/4d/4c/4[I:staff -1] z[I:staff +1] G | G>E{E} F2[I:staff -1] z[I:staff +1] A | %20
 D>E =F2[I:staff -1] z[I:staff +1] G | G>E{D} C2[I:staff -1] z[I:staff +1] E | %22
 A,>B, C2[I:staff -1] z[I:staff +1] D | D>B, G,2[I:staff -1] z2 | B2 B2 z g | g>e f/4e/4f3/2 z c | %26
 B>^d e/4d/4e3/2 z e | A>^c E2 z _d | ^c2 d2 z d | d2 d2 z e | A3/2G/4F/4{F} E2 z A, | D2 D2 z2 | %32
 x6 | x6 | x6 |[K:bass] x6 | x3[K:treble] x3 | x6 | x6 | x6 | z z/ ^G/ A>B c2- | c>F G>A B2- | %42
 B>E F>G A>G | c z z2 F z | G z z2 B z | x6 | x6 | x6 | x6 | x6 | x6 | x6 | x6 | x6 | x6 | x6 | %56
 z z/ ^G/ A>B c2- | c>F G>A B2- | B>E F>G A>G | c z z2 F z | G z z2 B z | x6 | x6 | x6 |] %64
V:3
 G2 D2 z G | G>E{E} F2 z A | B>G E2 z3/2 A,/ | D2 D2 z C | B,>C D2 z[K:bass] G, | C2 E,2 z G, | %6
 F,>G, A,2 z D, | G,2 G,,2 z2 | %8
 (6:4:6G,,/A,,/G,,/D,,/E,,/F,,/ (6:4:6G,,/F,,/G,,/A,,/G,,/A,,/ (6:4:6B,,/A,,/B,,/C,/B,,/^C,/ | %9
 (6:4:6D,/E,/D,/A,,/B,,/^C,/ (6:4:6D,/C,/D,/E,/D,/E,/ (6:4:6F,/E,/F,/G,/E,/F,/ | %10
 (6:4:6G,/A,/G,/D,/E,/F,/ (6:4:6G,/F,/G,/A,/G,/A,/ (6:4:6B,/A,/B,/^C/A,/B,/ | %11
 (6:4:6^C/D/C/E,/A,/B,/ (6:4:6C/B,/C/D/C/D/[K:treble] (6:4:6E/D/E/F/D/E/ | %12
 (6:4:6F/E/F/A/G/A/ (6:4:6D/^C/D/F/A/B/ (6:4:6c/B/c/A/F/A/ | %13
 (6:4:6G/F/G/B/A/B/ (6:4:6E/^D/E/G/B/^c/ (6:4:6d/c/d/B/G/B/ | %14
 (6:4:6^c/B/c/e/d/e/ (6:4:6A/^G/A/c/e/f/ (6:4:6g/f/g/e/c/e/ | %15
 (6:4:6f/e/f/a/g/a/ (6:4:6d/^c/d/f/a/^c'/ d'/4c'/4d'3/2 | G2 D2 z G | G>E{E} F2 z A | %18
 B>G E2 z3/2 A,/ | D2 D2 z C | B,>C D2 z G, | C2 E,2 z G, | F,>G, A,2 z[K:bass] D, | G,2 G,,2 z2 | %24
 (6:4:6G,,/A,,/G,,/D,,/E,,/F,,/ (6:4:6G,,/F,,/G,,/A,,/G,,/A,,/ (6:4:6B,,/A,,/B,,/C,/B,,/^C,/ | %25
 (6:4:6D,/E,/D,/A,,/B,,/^C,/ (6:4:6D,/C,/D,/E,/D,/E,/ (6:4:6F,/E,/F,/G,/E,/F,/ | %26
 (6:4:6G,/A,/G,/D,/E,/F,/ (6:4:6G,/F,/G,/A,/G,/A,/ (6:4:6B,/A,/B,/^C/A,/B,/ | %27
 (6:4:6^C/D/C/E,/A,/B,/ (6:4:6C/B,/C/D/C/D/[K:treble] (6:4:6E/D/E/F/D/E/ | %28
 (6:4:6F/E/F/A/G/A/ (6:4:6D/^C/D/F/A/B/ (6:4:6c/B/c/A/F/A/ | %29
 (6:4:6G/F/G/B/A/B/ (6:4:6E/^D/E/G/B/^c/ (6:4:6d/c/d/B/G/B/ | %30
 (6:4:6^c/B/c/e/d/e/ (6:4:6A/^G/A/c/e/f/ (6:4:6g/f/g/e/c/e/ | %31
 (6:4:6f/e/f/a/g/a/ (6:4:6d/^c/d/f/a/^c'/ d'/4c'/4d'3/2 | F>E{E} F2 z D | G>A{A} B2 z g | %34
 e>b{b} a2 z a | a>f{e} ^d2 z f | g>f{f} e2 z g | g2 =f2 z a | a>f{e} ^d2 z f | %39
 g>^d e/4=d/4e3/2[K:bass] (6:4:6z/ E,/F,/G,/A,/B,/ | %40
 (6:4:6C/B,/C/=F/E/D/ (6:4:6C/D/C/B,/C/B,/ (6:4:6A,/B,/A,/G,/A,/^F,/ | %41
 (6:4:6B,/A,/B,/E/D/C/ (6:4:6B,/C/B,/A,/C/A,/ (6:4:6G,/A,/G,/F,/G,/E,/ | %42
 (6:4:6A,/G,/A,/D/C/B,/ (6:4:6A,/B,/A,/G,/A,/G,/ (6:4:6F,/G,/F,/E,/F,/E,/ | %43
 (6:4:6D,/^C,/D,/G,/F,/E,/ (6:4:6D,/E,/D,/=C,/D,/C,/ (6:4:6B,,/C,/B,,/A,,/B,,/A,,/ | %44
 (6:4:6G,,/F,,/G,,/C,/B,,/A,,/ (6:4:6G,,/A,,/G,,/=F,,/G,,/F,,/ (6:4:6E,,/F,,/E,,/D,,/E,,/D,,/ | %45
 (6:4:4C,,3/2G,,/A,,/B,,/ (6:4:6C,/B,,/C,/D,/C,/D,/ (6:4:6E,/D,/C,/B,,/A,,/G,,/ | %46
 (6:4:6F,,/E,,/F,,/D,,/E,,/F,,/ (6:4:6G,,/F,,/G,,/A,,/B,,/C,/ (6:4:6D,/^C,/D,/E,/F,/D,/ | %47
 (3G, z z (6:4:6z/ A,/G,/F,/G,/D,/ G,,2 | F>E{E} F2 z D | G>A{A} B2 z g | e>b{b} a2 z a | %51
 a>f{e} ^d2 z f | g>f{f} e2 z g | g2 =f2 z a | a>f{e} ^d2 z f | %55
 g>^d e/4=d/4e3/2 (6:4:6z/ E,/F,/G,/A,/B,/ | %56
 (6:4:6C/B,/C/=F/E/D/ (6:4:6C/D/C/B,/C/B,/ (6:4:6A,/B,/A,/G,/A,/^F,/ | %57
 (6:4:6B,/A,/B,/E/D/C/ (6:4:6B,/C/B,/A,/C/A,/ (6:4:6G,/A,/G,/F,/G,/E,/ | %58
 (6:4:6A,/G,/A,/D/C/B,/ (6:4:6A,/B,/A,/G,/A,/G,/ (6:4:6F,/G,/F,/E,/F,/E,/ | %59
 (6:4:6D,/^C,/D,/G,/F,/E,/ (6:4:6D,/E,/D,/=C,/D,/C,/ (6:4:6B,,/C,/B,,/A,,/B,,/A,,/ | %60
 (6:4:6G,,/F,,/G,,/C,/B,,/A,,/ (6:4:6G,,/A,,/G,,/=F,,/G,,/F,,/ (6:4:6E,,/F,,/E,,/D,,/E,,/D,,/ | %61
 (6:4:4C,,3/2G,,/A,,/B,,/ (6:4:6C,/B,,/C,/D,/C,/D,/ (6:4:6E,/D,/C,/B,,/A,,/G,,/ | %62
 (6:4:6F,,/E,,/F,,/D,,/E,,/F,,/ (6:4:6G,,/F,,/G,,/A,,/B,,/C,/ (6:4:6D,/^C,/D,/E,/F,/D,/ | %63
 (3G, z z (6:4:6z/ A,/G,/F,/G,/D,/ !fermata!G,,2 |] %64
V:4
 x6 | x6 | x6 | x6 | x5[K:bass] x | x6 | x6 | x6 | x6 | x6 | x6 | x4[K:treble] x2 | x6 | x6 | x6 | %15
 x6 | x6 | x6 | x6 | x6 | x6 | x6 | x5[K:bass] x | x6 | x6 | x6 | x6 | x4[K:treble] x2 | x6 | x6 | %30
 x6 | x6 | D2 C2 z C | B,>D G2 z d | ^c2 ^d2 z e | ^d2 F2 z =d | e2 B2 z B | A>B{B} c2 z c | %38
 B2 A2 z A | A>F G2[K:bass] z2 | x6 | x6 | x6 | x6 | x6 | x6 | x6 | x6 | D2 C2 z C | B,>D G2 z d | %50
 ^c2 ^d2 z e | ^d2 F2 z =d | e2 B2 z B | A>B{B} c2 z c | B2 A2 z A | A>F G2 z2 | x6 | x6 | x6 | %59
 x6 | x6 | x6 | x6 | x6 |] %64

